cssgg/brackets.svg

<svg
  width="24"
  height="24"
  viewBox="0 0 24 24"
  fill="none"
  xmlns="http://www.w3.org/2000/svg"
>
  <path d="M11 7V9H9V15H11V17H7V7H11Z" fill="currentColor" />
  <path d="M15 15H13V17H17V7H13V9H15V15Z" fill="currentColor" />
  <path
    fill-rule="evenodd"
    clip-rule="evenodd"
    d="M3 6C3 4.34315 4.34315 3 6 3H18C19.6569 3 21 4.34315 21 6V18C21 19.6569 19.6569 21 18 21H6C4.34315 21 3 19.6569 3 18V6ZM6 5H18C18.5523 5 19 5.44772 19 6V18C19 18.5523 18.5523 19 18 19H6C5.44772 19 5 18.5523 5 18V6C5 5.44772 5.44772 5 6 5Z"
    fill="currentColor"
  />
</svg>

<svg viewBox="0 0 24 24" xmlns="http://www.w3.org/2000/svg"><g><path d="M11 7v2H9v6h2v2H7V7h4Z"/><path d="M15 15h-2v2h4V7h-4v2h2v6Z"/><path fill-rule="evenodd" d="M3 6c0-1.66 1.34-3 3-3h12c1.65 0 3 1.34 3 3v12c0 1.65-1.35 3-3 3H6c-1.66 0-3-1.35-3-3V6Zm3-1h12c.55 0 1 .44 1 1v12c0 .55-.45 1-1 1H6c-.56 0-1-.45-1-1V6c0-.56.44-1 1-1Z"/></g></svg>
